X:982
T:Reel 982
M:4/4
K:Dmaj
L:1/8
AG|FDDF EDCA,|FDFA dAGE|FDD (3DDD FDED||FDEC D2:||2FDEC  (3B,CD G,2|:ABcA BGAG|FGFA BcA2||ABcd BAGA|BAGF G2E2:||2DFAc d2cB|AGFE D2|
